!!!!SEGMENT: pl-wnifc--6439-n--003_anonim--mazur-no-3.krn
!!!cenid: 18xx:3946
!!!COM: Anonim
!!!COM-rismID: pe30004985
!!!CDT:
!!!CNT:
!!!OTL: [Mazur] No. 3
!!!PDT: 1827
!!!AGN:
!!!SMS-siglum: PL-Wnifc
!!!SMS-shelfmark: 6439/n
!!!SMS-shelfwork: 003 W
!!!SMS-variant:
!!!SMS-altvar:
!!!NIFC-rismSourceID: 1001011210
!!!NIFC-rismChildID: 1001011233
!!!NIFC-islandoraID: nifc:212734
!!!URL-pdf-islandora: https://repozytorium.nifc.pl/islandora/object/nifc:212734/datastream/PDF/view
!!!URL-scan: https://polish.musicsources.pl/pl/lokalizacje/galeria/druki-muzyczne/16857 @EN{Scan on Polish Music Sources Website} @PL{Skany w portalu Dziedzictwo Muzyki Polskiej w otwartym dostępie}
!!!ONB-nifc: str. 3 w połowie 3. linii (skan 0002)
!!!AIN: 2 piano
!!!key: D
**kern	**kern
*part2	*part1
*staff2	*staff1
*I"Pianoforte	*I"Pianoforte
*I'pf	*I'pf
*Ipiano	*Ipiano
*ICklav	*ICklav
*clefF4	*clefG2
*k[f#c#]	*k[f#c#]
*D:	*D:
*M3/8	*M3/8
=1	=1
*tremolo	*
!	!LO:TX:a:Bi:t=No 3
8D\L 8F# 8A	16.f#/LL
.	32a/JJk
8D\ 8F# 8A	16dd\LL
.	16ff#\
8D\J 8F# 8A	16ee\
.	16dd\JJ
=2	=2
8AA\L 8C# 8E 8A	16.a\LL 16.cc#
.	32b\JJk 32dd
8AA\ 8C# 8E 8A	4cc#\ 4ee
8AA\J 8C# 8E 8A	.
=3	=3
8AA\L 8C# 8E 8A	16.A/LL 16.e
.	32cc#/JJk
8AA\ 8C# 8E 8A	16cc#\LL 16ee
.	16ee\ 16gg
8AA\J 8C# 8E 8A	16dd\ 16ff#
.	16a\JJ 16ee
=4	=4
8D\L 8F# 8A	16.f#\LL 16.ee
.	32a\JJk 32ee
8D\ 8F# 8A	4dd\ 4ff#
8D\J 8F# 8A	.
=5	=5
8D\L 8F# 8A	(32a\LLL
.	32dd\)
.	32ff#'\
.	32aa'\JJJ
8D\ 8F# 8A	8ddd\L
8D\J 8F# 8A	16aa\L
.	16ff#\JJ
=6	=6
8G\L 8B 8e 8g	16ee\LL
.	32ccc#\L
.	32bb\JJJ
8G\ 8B 8e 8g	16aa\LL
.	16gg\
8G\J 8B 8e 8g	16ff#\
.	16ee\JJ
!!LO:LB:g=original
=7	=7
8A\L 8e 8g	16dd\LL
.	16cc#\
8A\ 8e 8g	16aa\
.	16a\
8A\J 8e 8g	16b\
.	16cc#\JJ
=8	=8
8d\ 8f#	16ee\LL
.	16dd\JJ
4D\ 4d	4dd\
=9:|!|:	=9:|!|:
8BB\ 8B	(24ff#\LL
.	24gg\
.	24ff#\JJ)
*Xtremolo	*
8F#\L 8B 8d	8dd\L
8F#\J 8B 8d	16gg\L
.	16ff#\JJ
=10	=10
8FF#/ 8F#	16ee\LL
.	16dd\J
8F#\L 8A#X 8c# 8e	8cc#\
8F#\J 8A# 8c# 8e	16ff#\L
.	16ee\JJ
=11	=11
8BB\ 8B	16dd\LL
.	16cc#\
8F#\L 8B 8d	16b\
.	16dd\
8F#\J 8B 8d	16cc#\
.	16b\JJ
=12	=12
8FF#/ 8F#	16a#X/LL
.	16cc#/JJ
8F#\L 8A#X 8c#	4f#/
8F#\J 8A# 8c#	.
=13	=13
8AA\ 8A	16g/LL
.	16e/
8A\L 8e 8g	16g/
.	16cc#/
8A\J 8e 8g	16ee/
.	16gg/JJ
=14	=14
8D\ 8d	16ff#/LL
.	16d/
8A\L 8d 8f#	16f#/
.	16a/
8A\J 8d 8f#	16dd/
.	16ff#/JJ
=15	=15
8AA\ 8A	16bb\LL
.	16aa\
8A\L 8e 8g	16cc#\
.	16ee\
8A\J 8e 8g	16aa\
.	16gg\JJ
=16	=16
8D\ 8d	16gg\LL
.	16ff#\JJ
4A\ 4d 4f#	4dd\
!!LO:LB:g=original
=17:|!|:	=17:|!|:
*k[f#cn]	*k[f#cn]
*G:	*G:
*^	*
8rc	4G\	16b\LL
.	.	16cc\
8B/L 8d	.	16dd\
.	.	16ee\
8B/J 8d	8r	16ff#\
.	.	16gg\JJ
=18	=18	=18
8rc	4D\	16ff#\LL
.	.	16gg\
8A/L 8c	.	16aa\
.	.	16bb\J
8A/J 8c	8r	8ccc\J
=19	=19	=19
8rc	4D\	32dd\LLL
.	.	32ccc\
.	.	32aa\
.	.	32ff#\JJJ
8A/L 8c	.	8ddM\L
8A/J 8c	8r	16ee\L
.	.	16ff#\JJ
=20	=20	=20
8rc	4G\	16.ggM\LL
.	.	32aa\K
8B/L 8d	.	16bb\
.	.	16ff#\
8B/J 8d	8r	16gg\
.	.	16ee\JJ
=21	=21	=21
8rc	4G\	16dd\LL
.	.	16cc\
8B/L 8d	.	16b\
.	.	16dd\
8B/J 8d	8r	16gg\
.	.	16bb\JJ
=22	=22	=22
8rc	4C\	16ee\LL
.	.	16dd\
8E/L 8A	.	16cc\
.	.	16ee\
8E/J 8A	8r	16aa\
.	.	16ccc\JJ
=23	=23	=23
8rc	4D\	16ff#\LL
.	.	16ee\
8A/L 8c	.	16dd\
.	.	16ccc\
8A/J 8c	8r	16aa\
.	.	16ff#\JJ
*v	*v	*
=24	=24
8G\ 8B	16aa\LL
.	16gg\JJ
4GG/ 4G	4gg\
=:|!	=:|!
*-	*-
!!!RDF**kern: > = above
!!!RDF**kern: < = below
!!!system-decoration: [(s1,s2)]
!!!ENC: Solarz Mateusz
!!!END: 2022-07-28
!!!ENC: Urszula Świątek
!!!END: 2022-08-26!!!YEC: Copyright 2022 Narodowy Instytut Fryderyka Chopina (https://polishscores.org)
!!!YEM: License CC-BY-4.0 (https://creativecommons.org/licenses/by/4.0)
